X:1
T:Title
%%score { ( 1 3 ) | 2 }
L:1/8
M:4/4
K:Bb
V:1 treble nm="Grand Piano"
V:3 treble 
V:2 bass 
V:1
 z4 z2[Q:1/4=94] [Fd]>[Ec] | [DB]>[DF] [B,D]>[DF] [DB]>[DB] [Fd]>[Ec] | %2
 [DB]>[DF] [B,D]>[DF] [DB]2 [Ec]>[DB] | A>C C>D E>A A>G | [EG]>[DF] [Fd]>[Fd] [Fd]2 [Fd]>[Ec] | %5
 [DB]>[DF] [B,D]>[DF] [DB]>[DB] [DF]>[DF] |[M:9/8] [EG]>[FA][GB]- [GB]/[Gc]/ [Fd]2- [Fd][DF]>[DF] | %7
[M:4/4] G>B B>G [DF]>[DB] [DB]>[Ec] |[M:7/8] d>dc>c [DB]3 |[M:1/4] F>B |[M:4/4] d6 z2 | F6 z2 | %12
 A6 z2 | B6 z2 | [Fd]>[Fd] [Fd]>[Ec] [DB]2 [DB]>[DB] | [Ec]>[EB] [FA]>[EG] [DF]2 [DF]>[DF] | %16
 G>A B>c [Fd]2 [DB]2 |[M:7/8] [Ec]- [Ec]3 [DB]3 |] %18
V:2
 z4 z2 [B,,B,]>[B,,B,] | [B,,B,]>[B,,B,] [B,,F,]>[C,B,] [B,,B,]>[B,,B,] [B,,B,]>[B,,B,] | %2
 [B,,B,]>[B,,B,] [B,,F,]>[B,,B,] [B,,B,]2 [B,,B,]>[B,,B,] | %3
 [F,A,C]>[F,A,] [F,A,]>[F,A,C] [F,A,C]>[F,CE] [F,CE]>[F,A,E] | %4
 [B,,B,]>[B,,B,] [B,,B,]>[B,,B,] [B,,B,]2 [B,,B,]>[B,,B,] | %5
 [B,,B,]>[B,,B,] [B,,F,]>[B,,B,] [B,,F,]>[B,,F,] [B,,B,]>[B,,B,] | %6
[M:9/8] [E,B,]>[E,B,][E,B,]- [E,B,]/[E,B,]/ [B,,B,]2- [B,,B,][B,,B,]>[B,,B,] | %7
[M:4/4] [E,B,E]>[E,G,E] [E,G,E]>[E,B,E] [B,,B,]>[B,,B,] [B,,B,]>[B,,B,] | %8
[M:7/8] [F,B,F]>[F,B,F][F,A,E]>[F,A,E] [B,,B,]3 |[M:1/4] z2 | %10
[M:4/4] z2 [B,,B,]>[B,,B,] [B,,B,]>[B,,B,] [B,,B,]>[B,,B,] | [B,,B,]2 [B,,B,]>[B,,B,] [B,,B,]2 z2 | %12
 z2 [F,C]2 [F,C]>[F,B,E] [F,A,E]>[F,A,F] | %13
 [B,,B,]>[B,,B,] [B,,B,]>[B,,B,] [B,,B,]2 [B,,B,]>[B,,B,] | %14
 [B,,B,]>[B,,B,] [B,,B,]>[B,,B,] [B,,B,]2 [B,,B,]>[B,,B,] | %15
 [E,G,]>[E,G,] [E,A,]>[E,B,] [B,,B,]2 [B,,B,]>[B,,B,] | %16
 [E,B,E]>[E,A,E] [E,G,E]>[E,G,E] [B,,B,]2 [B,,B,]2 |[M:7/8] [F,A,]- [F,A,]3 [B,,B,]3 |] %18
V:3
 x8 | x8 | x8 | x8 | x8 | x8 |[M:9/8] x9 |[M:4/4] x8 |[M:7/8] x7 |[M:1/4] x2 | %10
[M:4/4] z2 F>F F>[Fd] [DB]>[EG] | D2 D>D D2 B2 | z2 E2 E>B c>d | D>D D>D D2 [DF]>[DB] | x8 | x8 | %16
 x8 |[M:7/8] x7 |] %18

